app/images/icons/search.svg

<svg width="16" height="16" viewBox="0 0 16 16" fill="none" xmlns="http://www.w3.org/2000/svg">
<path d="M15.1914 14.5103L11.0121 10.2865C11.8217 9.27594 12.3091 7.99177 12.3091 6.59314C12.3091 3.3515 9.69921 0.713867 6.49168 0.713867C3.28416 0.713867 0.674316 3.35147 0.674316 6.59311C0.674316 9.83475 3.28419 12.4724 6.49171 12.4724C7.87563 12.4724 9.14628 11.9798 10.1462 11.1616L14.3256 15.3854C14.445 15.5061 14.6017 15.5667 14.7585 15.5667C14.9153 15.5667 15.0721 15.5061 15.1915 15.3854C15.4309 15.1434 15.4309 14.7523 15.1914 14.5103ZM6.49171 11.2346C3.959 11.2346 1.89904 9.15276 1.89904 6.59311C1.89904 4.03345 3.959 1.95159 6.49171 1.95159C9.02443 1.95159 11.0844 4.03345 11.0844 6.59311C11.0844 9.15276 9.0244 11.2346 6.49171 11.2346Z" fill="#2A364E"/>
</svg>

<svg width="16" height="16" fill="none" xmlns="http://www.w3.org/2000/svg"><path d="M15.2 14.51 11 10.29A5.89 5.89 0 0 0 6.5.7 5.86 5.86 0 0 0 .67 6.6a5.86 5.86 0 0 0 5.82 5.88c1.39 0 2.66-.49 3.66-1.3l4.18 4.22a.6.6 0 0 0 .86 0 .62.62 0 0 0 0-.88Zm-8.7-3.28A4.62 4.62 0 0 1 1.9 6.6a4.62 4.62 0 0 1 4.6-4.64c2.52 0 4.58 2.08 4.58 4.64a4.62 4.62 0 0 1-4.59 4.64Z" fill="#2A364E"/></svg>
